svg/emoji_u1f4b4.svg

<svg xmlns="http://www.w3.org/2000/svg" width="128" height="128"><path d="M123.84 40.19H4.15c-1.82 0-3.29 1.47-3.29 3.29v58.54c0 1.81 1.47 3.29 3.29 3.29h119.69c1.81 0 3.29-1.47 3.29-3.29V43.48c0-1.81-1.47-3.29-3.29-3.29z" fill="#8a789c"/><path d="M123.85 22.69H4.15c-1.82 0-3.29 1.47-3.29 3.29v58.54c0 1.82 1.47 3.29 3.29 3.29h119.69c1.81 0 3.29-1.47 3.29-3.29V25.98a3.29 3.29 0 0 0-3.28-3.29z" fill="#ceb1e0"/><path d="M25.31 52.42h-7.09c-.38 0-.68.31-.68.69v4.7c0 .38.31.69.68.69h10.86v2.98H18.23c-.38 0-.68.31-.68.69v4.7c0 .39.31.69.68.69h10.86v7.98c0 .48.39.86.86.86h8.5c.47 0 .86-.39.86-.86v-7.98h10.78c.39 0 .7-.31.7-.69v-4.7c0-.38-.31-.69-.7-.69H39.31V58.5h10.78c.39 0 .7-.31.7-.69v-4.7c0-.38-.31-.69-.7-.69h-7.01l9.34-14.9c.17-.27.18-.61.03-.89a.86.86 0 0 0-.77-.45H43.7c-.29 0-.57.15-.73.4L34.2 50.04l-8.76-13.46a.877.877 0 0 0-.74-.4h-7.99c-.32 0-.61.18-.77.45-.15.28-.15.62.03.89z" fill="#8e789c"/><path fill="#e0e0e0" d="M78.5 20.69h22V87.8h-22z"/><path fill="#bdbdbd" d="M78.5 87.81h22v19.5h-22z"/></svg>

<?xml version="1.0" encoding="UTF-8" standalone="no"?>
<!DOCTYPE svg PUBLIC "-//W3C//DTD SVG 1.1//EN" "http://www.w3.org/Graphics/SVG/1.1/DTD/svg11.dtd">
<svg width="100%" height="100%" viewBox="0 0 128 128" version="1.1" xmlns="http://www.w3.org/2000/svg" xmlns:xlink="http://www.w3.org/1999/xlink" xml:space="preserve" xmlns:serif="http://www.serif.com/" style="fill-rule:evenodd;clip-rule:evenodd;stroke-linejoin:round;stroke-miterlimit:2;">
    <path d="M123.84,40.19L4.15,40.19C2.33,40.19 0.86,41.66 0.86,43.48L0.86,102.02C0.86,103.83 2.33,105.31 4.15,105.31L123.84,105.31C125.65,105.31 127.13,103.84 127.13,102.02L127.13,43.48C127.13,41.67 125.66,40.19 123.84,40.19Z" style="fill:rgb(252,194,27);fill-rule:nonzero;"/>
    <path d="M123.85,22.69L4.15,22.69C2.33,22.69 0.86,24.16 0.86,25.98L0.86,84.52C0.86,86.34 2.33,87.81 4.15,87.81L123.84,87.81C125.65,87.81 127.13,86.34 127.13,84.52L127.13,25.98C127.13,24.179 125.651,22.695 123.85,22.69Z" style="fill:rgb(255,238,88);fill-rule:nonzero;"/>
    <path d="M25.31,52.42L18.22,52.42C17.84,52.42 17.54,52.73 17.54,53.11L17.54,57.81C17.54,58.19 17.85,58.5 18.22,58.5L29.08,58.5L29.08,61.48L18.23,61.48C17.85,61.48 17.55,61.79 17.55,62.17L17.55,66.87C17.55,67.26 17.86,67.56 18.23,67.56L29.09,67.56L29.09,75.54C29.09,76.02 29.48,76.4 29.95,76.4L38.45,76.4C38.92,76.4 39.31,76.01 39.31,75.54L39.31,67.56L50.09,67.56C50.48,67.56 50.79,67.25 50.79,66.87L50.79,62.17C50.79,61.79 50.48,61.48 50.09,61.48L39.31,61.48L39.31,58.5L50.09,58.5C50.48,58.5 50.79,58.19 50.79,57.81L50.79,53.11C50.79,52.73 50.48,52.42 50.09,52.42L43.08,52.42L52.42,37.52C52.59,37.25 52.6,36.91 52.45,36.63C52.297,36.349 52,36.175 51.68,36.18L43.7,36.18C43.41,36.18 43.13,36.33 42.97,36.58L34.2,50.04L25.44,36.58C25.278,36.33 24.998,36.179 24.7,36.18L16.71,36.18C16.39,36.18 16.1,36.36 15.94,36.63C15.79,36.91 15.79,37.25 15.97,37.52L25.31,52.42Z" style="fill:rgb(252,194,27);fill-rule:nonzero;"/>
    <rect x="78.5" y="20.69" width="22" height="67.11" style="fill:rgb(224,224,224);fill-rule:nonzero;"/>
    <rect x="78.5" y="87.81" width="22" height="19.5" style="fill:rgb(189,189,189);fill-rule:nonzero;"/>
</svg>
